X:826
T:The whistling postman
T:The Kerry jig
R:Jig
O:Ireland
P:APB Sean Ryan
D:Sean Ryan: Take the Air
S:Sean Ryan: Take the Air
Z:Transcription, chords:Mike Long
M:6/8
L:1/8
K:D
"D"~f3 "G"edB|"D"~A3 "A"BAF|"D"DFA dfa|"G"baf "A"ede|\
"D"~f3 "(G)"edB|"D"~A3 "A"BAF|"D"DFA "G"~B3|"A"cBc "D"d2e:|
"D"~f3 afd|"G"gBd gBd|"D"~f3 ~a3|"G"baf "A"ede|\
"D"faf "(G)"edB|"D"~A3 "A"BAF|"D"DFA "G"~B3|"A"cBc "D"d2e:|
